app/images/icons/filter-btn.svg

<svg width="19" height="10" viewBox="0 0 19 10" fill="none" xmlns="http://www.w3.org/2000/svg">
<path d="M0.653061 2.93878H17.6327C17.9933 2.93878 18.2857 2.64641 18.2857 2.28571V0.653061C18.2857 0.292367 17.9933 0 17.6327 0H0.653061C0.292367 0 0 0.292367 0 0.653061V2.28571C0 2.64641 0.292367 2.93878 0.653061 2.93878Z" fill="#262626"/>
<path d="M0.5 9.46929H13.5C13.7762 9.46929 14 9.17693 14 8.81623V7.18358C14 6.82288 13.7762 6.53052 13.5 6.53052H0.5C0.223844 6.53052 0 6.82288 0 7.18358V8.81623C0 9.17693 0.223844 9.46929 0.5 9.46929Z" fill="#262626"/>
</svg>

<svg width="19" height="10" fill="none" xmlns="http://www.w3.org/2000/svg"><path d="M.653 2.939h16.98c.36 0 .653-.293.653-.653V.653A.653.653 0 0017.633 0H.653A.653.653 0 000 .653v1.633c0 .36.292.653.653.653zM.5 9.47h13c.276 0 .5-.293.5-.654V7.184c0-.361-.224-.653-.5-.653H.5c-.276 0-.5.292-.5.653v1.632c0 .36.224.653.5.653z" fill="#262626"/></svg>
